X:1
T: Miss McPherson Grant's Jig
C:
R:Jig
Q:180
K:Bb
M:6/8
L:1/16
F2|F4B2 B4G2|A2B2c2 c2d2e2|d4F2 B2A2B2|c6F6|F4f2 f4d2|e2d2e2 c2d2e2|d2e2f2 g2f2e2|d2c2B2 A2G2F2|
F4B2 B4G2|A2B2c2 c2d2e2|d4F2 B2A2B2|c6F6|F4f2 f4d2|e2d2e2 c2d2e2|d2c2B2 F2G2A2|B6D4F2|
D4F2 B4_A2|G2F2G2 E4G2|G4d2 c2d2B2|A6F4F2|G2A2B2 c2d2e2|d2e2f2 g2a2b2|a2g2f2 c2d2=e2|f6A4z2|
g4e2 g2f2e2|f4d2 f2d2B2|G2A2B2 c2d2B2|A6F6|G4e2 F4d2|E4c2 D4f2|d2c2B2 F2G2A2|B6c4||
